!!!!SEGMENT: pl-sa--552-a-ix-32--001_anonim--polonez.krn
!!!cenid: 18xx:512
!!!COM: Anonim
!!!COM-rismid: pe30004985
!!!CDT:
!!!CNT:
!!!OTL: Polonez
!!!PDT:
!!!AGN: Secular; Polonaise
!!!SMS-siglum: PL-SA
!!!SMS-shelfmark: 552/A IX 32
!!!SMS-shelfwork: 001 W
!!!SMS-variant:
!!!SMS-altvar:
!!!NIFC-rismid: 1001069488
!!!URL-scan: http://bc.bdsandomierz.pl/dlibra/publication/1308/edition/1276/content
!!!ONB-nifc: Str. 1, s. 1-3
!!!key:
**kern	**kern
*part1	*part1
*staff2	*staff1
*Iempty	*Iempty
*I"	*I"
*I'keyb	*I'keyb
*clefF4	*clefG2
*k[b-e-]	*k[b-e-]
*B-:	*B-:
*M3/4	*M3/4
=1	=1
!LO:TX:a:t=P:problem:kolejność znaków: E-, BB-	!LO:TX:a:t=P:problem:kolejność znaków: ee-, b-
!	!LO:TX:i:a:t=Polonez
8r	8ff\L
8F\ 8B- 8d	8.bb-\J
*tremolo	*
8F\ 8B- 8dL	.
.	16aa\LL
8F\ 8B- 8d	16gg\
.	16ff\JJ
8F\ 8B- 8d	16ee-\LL
.	16dd\
8F\ 8B- 8dJ	16cc\
.	16b-\JJ
=2	=2
8r	8ff\L
8F\ 8A 8c 8e-	8ee-\J
8F\ 8c 8e-L	4.cc\
8F\ 8c 8e-	.
8F\ 8c 8e-	.
8F\ 8c 8e-J	8a/
=3	=3
8r	4f/
*rep	*
8F\ 8A 8c 8e-	.
2F\ 2A 2c 2e-	16f\LL
.	16g\
.	16a\
.	16b-\JJ
.	16cc\LL
.	16dd\
.	16ee-\
.	16cc\JJ
*Xrep	*
=4	=4
8r	16ee-\LL
.	16dd\
8F\ 8B- 8d	16cc\
.	16dd\JJ
*2\right	*
8F\ 8B- 8dL	16b-\LL
.	16f\
8F\ 8B- 8d	16g\
.	16a\JJ
8F\ 8B- 8d	16b-\LL
.	16cc\
8F\ 8B- 8dJ	16dd\
.	16ee-\JJ
=5	=5
16BB-\LL	16ff\LL
16F\	16dd\J
!	!LO:N:vis=8
16D\	8.bb-\J
16F\JJ	.
*rep	*
16BB-\LL	.
16F\	16ff\LL
16D\	16bb-\
16F\JJ	16ccc\JJ
*Xrep	*
*rep	*
16BB-\LL	16bb-\LL
16F\	16aa\
16D\	16gg\
16F\JJ	16ff\JJ
*Xrep	*
=6	=6
16AA\LL	8ee-\L
16F\	.
16C\	8.ccc\J
16F\JJ	.
*rep	*
16AA\LL	.
16F\	16aa\LL
!	!LO:TX:a:t=e
16C\	16ccc\ 16eee-
16F\JJ	16ccc\JJ
*Xrep	*
*rep	*
16AA\LL	16aa\LL
16F\	16ff\
16C\	16ee-\
16F\JJ	16dd\JJ
*Xrep	*
=7	=7
16BB-\LL	16b-\LL
16F\	16dd\
16D\	16ff\
16F\JJ	16een\JJ
*rep	*
16BB-\LL	16gg\LL
16F\	16ff\
16D\	16ee\
16F\JJ	16ff\JJ
*Xrep	*
*rep	*
16BB-\LL	16ee-X\LL
16F\	16dd\
16D\	16cc\
16F\JJ	16b-\JJ
*Xrep	*
!!LO:LB:g=original
=8	=8
16AA\LL	16a\LL
16F\	16cc\J
16C\	8.ff\J
16F\JJ	.
*rep	*
16AA\LL	.
!	!LO:TX:a:t=P:problem:mixed beam
16F\	16ff#X\LL
16C\	16gg\
16F\JJ	16a/JJ
*Xrep	*
4BB-\ 4D 4F	4b-\
=9:|!|:	=9:|!|:
8.FF/L 8.AA 8.C 8.F	8.e-/L 8.cc
16B-/Jk 16d	16b-/Jk 16dd
8A\L 8c	8a\L 8cc
8A\ 8c	8a\ 8cc
8B-\ 8d	8b-\ 8dd
8c\J 8e-	8cc\J 8ee-
=10	=10
8.d\L 8.f	8.dd\L 8.ff
16c\Jk 16e-	16cc\Jk 16ee-
8B-\ 8d	8b-\L 8dd
*clefG2	*
8g/L 8b-	8gg\ 8bb-
8f/ 8a	8ff\ 8aa
8e-/J 8g	8ee-\J 8gg
=11	=11
!	!LO:SIC:s=cc#
8c#X/L 8en	8cc\L 8een
8d/J 8f	8dd\J 8ff
4.B-/ 4.d	4.b-\ 4.dd
8d/ 8f	8dd\ 8ff
=12	=12
*clefF4	*
*2\right	*
!LO:TX:a:t=P:problem:2\right:global	!
8c\ 8e-L	16ee-\LL
.	16aa\
8F\	16ccc\
.	16bb-\JJ
8c\ 8e-	16aa\LL
.	16gg\
8F\	16ff\
.	16ee-\JJ
8c\ 8e-	16dd\LL
.	16cc\
8F\J	16b-\
.	16a\JJ
=13	=13
8B-\ 8dL	16b-\LL
.	16cc\
8B-\ 8d	16dd\
!	!LO:TX:a:t=c
.	16cc\JJ
8B-\ 8d	16b-\LL
.	16cc\
8B-\ 8d	16dd\
.	16ee-\JJ
4ryyJ	16ff\LL
.	16dd\
.	16cc\
.	16b-\JJ
=14	=14
!LO:TX:a:t=P:problem:puste t. 14-16	!
2.ryy	8.f/L 8.cc/ 8.ee-/
.	16b-\Jk 16dd
.	8a\L 8cc
.	8a\ 8cc
.	8b-\ 8dd
.	8cc\J 8ee-
=15	=15
2.ryy	8.dd\L 8.ff
.	16cc\Jk 16ee-
.	8b-\L 8dd
.	8b-\ 8dd
.	8cc\ 8ee-
.	8dd\J 8ff
=16	=16
2.ryy	8cc#\L 8een
.	8dd\J 8ff
.	8cc#\L 8eeny
.	8dd\J 8ff
!	!LO:TX:a:i:t=Polon&colon; Da Capo
!	!LO:TX:a:t=P:problem:napis za kreską
.	4g\ 4cc#
!!LO:LB:g=original
=17||	=17||
!LO:CL:ed	!
*clefG2	*
!LO:TX:a:t=P:problem:brak klucza (wiolinowy)	!
!	!LO:TX:b:i:t=Trio
8g/ 8b-L	8gg\L
8d/	8.dd\J
8g/ 8b-	.
.	16bb-\LL
8d/	16aa\
.	16gg\JJ
8g/ 8b-	16ff#X\LL
.	16gg\
8d/J	16aa\
.	16gg\JJ
=18	=18
8f#X/ 8a 8ccL	16ff#X\LL
.	16gg\
8d/	16aa\
.	16bb-\JJ
8f#X/ 8a 8cc	16ccc\LL
.	16ddd\
8d/	16eee-\
.	16ddd\JJ
8f#X/ 8a 8cc	16fffn\LL
.	16eee-\
8d/J	16ddd\
.	16ccc\JJ
=19	=19
8g/ 8b-L	8ccc#X\L
8d/	8ddd\J
8g/ 8b-	4.gg\
8d/	.
8g/ 8b-	.
8d/J	8bb-\
=20	=20
8f#X/ 8a 8ccL	8aa\
8d/	4ddd\
8f#X/ 8a 8cc	.
8d/	8ff#X\
.	8qaa/
8f#X/ 8a 8cc	4gg\
8d/J	.
=21:|!|:	=21:|!|:
!LO:CL:ed	!
*clefF4	*
!LO:TX:a:t=P:problem:brak klucza (basowy)	!
16BB-\LL	16ee-\LL
16F\	16ff\
16D\	16gg\
16F\JJ	16ff\JJ
*rep	*
16BB-\LL	16ee-X\LL
16F\	16dd\
16D\	16cc\
16F\JJ	16b-\JJ
*Xrep	*
*rep	*
16BB-\LL	16a\LL
16F\	16b-\
16D\	16cc\
16F\JJ	16b-\JJ
*Xrep	*
=22	=22
16AA\LL	8ff\L
16F\	.
16C\	8ee-\J
16F\JJ	.
*rep	*
16AA\LL	4.cc\
16F\	.
16C\	.
16F\JJ	.
*Xrep	*
*rep	*
16AA\LL	.
16F\	.
16C\	8a/
16F\JJ	.
*Xrep	*
=23	=23
16GG/LL	16cc#X\LL
16D/	16dd\
16BB-/	16ee-\
16D/JJ	16dd\JJ
*rep	*
16GG/LL	16ccn\LL
16D/	16b-\
16BB-/	16a\
16D/JJ	16g\JJ
*Xrep	*
*rep	*
16GG/LL	16f#X/LL
16D/	16g/
16BB-/	16a/
16D/JJ	16g/JJ
*Xrep	*
=24	=24
!LO:SIC:s=FF#	!
16FF/LL	8a/L
16D/	.
16AA/	8f#X/J
16D/JJ	.
!	!LO:TX:a:t=P:problem:mixed beam
4DD/	8d/L
.	8dd\
4ryy	8een\
!	!LO:SIC:s=ff#
!	!LO:TX:b:t=P:problem:napis za kreską
!	!LO:TX:i:b:t=Da Capo
.	8ff\J
==	==
*-	*-
!!!system-decoration: {(s1,s2)}
!!!RDF**kern: > = above
!!!RDF**kern: < = below
!!!EED: Mateusz Mrugas
!!!EST: 2020-12-11
!!!AIN: 1 empty
!!!ENC: Marcin Jachim
!!!END: 2020-06-17
